icon/mi/animal-shelter.svg

<?xml version="1.0" encoding="UTF-8"?>
<svg id="animal-shelter" viewBox="0 0 15 15" xmlns="http://www.w3.org/2000/svg" height="1em" width="1em">
  <path d="M 7.528,0.895 9,2 h 1 L 11.473,0.896 C 11.689502,0.73373378 12,0.8884387 12,1.159 V 4.5 c 0,0.722 -0.522,1.184 -1,1.573 V 10 l 0.8,2.4 0.706,0.353 c 0.302922,0.151551 0.494181,0.461283 0.494,0.8 C 13,13.8 12.8,14 12.553,14 H 4.25 C 3.017,14 2,13 2,11.713 2,9.5424588 2.4530836,7.9300225 2.745,6.845 2.8910836,6.3020225 3.0352907,5.8946079 3.138,5.614 3.1956028,5.4566256 3.253276,5.3110749 3.33,5.165 3.7788405,4.3104525 5.0743666,4.9556117 4.672,5.833 4.6232251,5.9393571 4.5778358,6.0512046 4.539,6.15 4.4477518,6.3821288 4.325004,6.7430011 4.193,7.234 3.947004,8.1490011 3.674,9.521 3.558,11.367 3.926,9.307 5.98,7.239 7.635,5.758 7.29,5.432 7.001,5.038 7.001,4.5 l 0,-3.342 c 0,-0.2705613 0.3106215,-0.42543084 0.527,-0.263 z"/>
</svg>

<svg width="15" height="15" xmlns="http://www.w3.org/2000/svg"><path d="M7.528.895 9 2h1L11.473.896a.33.33 0 0 1 .527.263V4.5c0 .722-.522 1.184-1 1.573V10l.8 2.4.706.353a.894.894 0 0 1 .494.8c0 .247-.2.447-.447.447H4.25C3.017 14 2 13 2 11.713c0-2.17.453-3.783.745-4.868.146-.543.29-.95.393-1.231.058-.157.115-.303.192-.449.449-.855 1.744-.21 1.342.668a6.311 6.311 0 0 0-.133.317c-.091.232-.214.593-.346 1.084-.246.915-.519 2.287-.635 4.133.368-2.06 2.422-4.128 4.077-5.609-.345-.326-.634-.72-.634-1.258V1.158c0-.27.31-.425.527-.263z"/></svg>
